;FLAVOR:Marlin
;TIME:17964
;Filament used: 13.9816m
;Layer height: 0.2
;MINX:63.2
;MINY:48.912
;MINZ:0.2
;MAXX:171.8
;MAXY:186.088
;MAXZ:15
;Generated with Cura_SteamEngine 5.4.0
M140 S50
M105
M190 S50
M104 S200
M105
M109 S200
M82 ;absolute extrusion mode
; Ender 3 Custom Start G-code
G92 E0 ; Reset Extruder
G28 ; Home all axes
G1 Z2.0 F3000 ; Move Z Axis up little to prevent scratching of Heat Bed
G1 X0.1 Y20 Z0.3 F5000.0 ; Move to start position
G1 X0.1 Y200.0 Z0.3 F1500.0 E15 ; Draw the first line
G1 X0.4 Y200.0 Z0.3 F5000.0 ; Move to side a little
G1 X0.4 Y20 Z0.3 F1500.0 E30 ; Draw the second line
G92 E0 ; Reset Extruder
G1 Z2.0 F3000 ; Move Z Axis up little to prevent scratching of Heat Bed
G1 X5 Y20 Z0.3 F5000.0 ; Move over to prevent blob squish
G92 E0
G92 E0
G1 F2700 E-5
;LAYER_COUNT:75
;LAYER:0
M107
G0 F6000 X67.296 Y55.86 Z0.2
;TYPE:SKIRT
G1 F2700 E0
G1 F1200 X67.848 Y55.212 E0.02831
G1 X68.303 Y54.712 E0.0508
G1 X68.931 Y54.077 E0.0805
G1 X69.568 Y53.5 E0.10909
G1 X70.099 Y53.051 E0.13222
G1 X70.843 Y52.478 E0.16345
G1 X71.522 Y52.009 E0.1909
G1 X72.059 Y51.665 E0.21211
G1 X72.827 Y51.215 E0.24171
G1 X73.569 Y50.834 E0.26946
G1 X74.185 Y50.541 E0.29214
G1 X75.096 Y50.159 E0.325
G1 X75.858 Y49.888 E0.3519
G1 X76.478 Y49.689 E0.37356
G1 X77.346 Y49.451 E0.40349
G1 X78.169 Y49.272 E0.43151
G1 X78.817 Y49.154 E0.45341
G1 X79.728 Y49.028 E0.484
G1 X80.467 Y48.967 E0.50866
G1 X81.209 Y48.935 E0.53337
G1 X82.508 Y48.912 E0.57658
G1 X152.697 Y48.912 E2.91107
G1 X153.674 Y48.93 E2.94357
G1 X154.506 Y48.97 E2.97128
G1 X155.133 Y49.015 E2.99219
G1 X156.035 Y49.129 E3.02243
G1 X156.862 Y49.28 E3.05039
G1 X157.491 Y49.415 E3.07178
G1 X158.353 Y49.638 E3.1014
G1 X159.158 Y49.894 E3.12949
G1 X159.841 Y50.137 E3.1536
G1 X160.692 Y50.483 E3.18416
G1 X161.461 Y50.848 E3.21247
G1 X162.068 Y51.161 E3.23519
G1 X162.846 Y51.603 E3.26495
G1 X163.519 Y52.036 E3.29156
G1 X164.108 Y52.442 E3.31536
G1 X164.86 Y53.013 E3.34676
G1 X165.494 Y53.554 E3.37448
G1 X165.984 Y53.999 E3.3965
G1 X166.639 Y54.647 E3.42714
G1 X167.205 Y55.273 E3.45521
G1 X167.658 Y55.809 E3.47855
G1 X168.2 Y56.504 E3.50787
G1 X168.662 Y57.172 E3.53488
G1 X169.046 Y57.767 E3.55843
G1 X169.515 Y58.571 E3.58939
G1 X169.883 Y59.291 E3.61629
G1 X170.183 Y59.924 E3.63959
G1 X170.576 Y60.87 E3.67366
G1 X170.821 Y61.567 E3.69823
G1 X171.022 Y62.197 E3.72022
G1 X171.255 Y63.036 E3.74919
G1 X171.431 Y63.84 E3.77656
G1 X171.558 Y64.534 E3.80003
G1 X171.687 Y65.456 E3.83099
G1 X171.745 Y66.169 E3.85478
G1 X171.776 Y66.887 E3.87869
G1 X171.8 Y68.281 E3.92506
G1 X171.799 Y167.141 E7.21315
G1 X171.782 Y167.948 E7.24
G1 X171.741 Y168.804 E7.2685
G1 X171.697 Y169.418 E7.28898
G1 X171.581 Y170.336 E7.31975
G1 X171.43 Y171.159 E7.34758
G1 X171.298 Y171.775 E7.36854
G1 X171.059 Y172.693 E7.40009
G1 X170.811 Y173.464 E7.42703
G1 X170.575 Y174.126 E7.4504
G1 X170.186 Y175.072 E7.48442
G1 X169.854 Y175.767 E7.51004
G1 X169.564 Y176.333 E7.53119
G1 X169.126 Y177.107 E7.56077
G1 X168.651 Y177.846 E7.58999
G1 X168.264 Y178.404 E7.61258
G1 X167.678 Y179.171 E7.64468
G1 X167.159 Y179.78 E7.67129
G1 X166.705 Y180.281 E7.69378
G1 X166.068 Y180.925 E7.72391
G1 X165.438 Y181.495 E7.75217
G1 X164.911 Y181.942 E7.77515
G1 X164.164 Y182.519 E7.80654
G1 X163.507 Y182.973 E7.83311
G1 X163.007 Y183.297 E7.85292
G1 X162.153 Y183.796 E7.88582
G1 X161.428 Y184.168 E7.91292
G1 X160.803 Y184.465 E7.93594
G1 X159.899 Y184.843 E7.96853
G1 X159.147 Y185.11 E7.99507
G1 X158.562 Y185.299 E8.01552
G1 X157.662 Y185.548 E8.04657
G1 X156.906 Y185.711 E8.0723
G1 X156.18 Y185.845 E8.09685
G1 X155.269 Y185.973 E8.12745
G1 X154.533 Y186.033 E8.15201
G1 X153.791 Y186.065 E8.17671
G1 X152.478 Y186.088 E8.22039
G1 X82.152 Y186.087 E10.55944
G1 X81.329 Y186.07 E10.58682
G1 X80.494 Y186.03 E10.61462
G1 X79.863 Y185.984 E10.63567
G1 X78.966 Y185.871 E10.66574
G1 X78.106 Y185.714 E10.69481
G1 X77.472 Y185.576 E10.71639
G1 X76.637 Y185.359 E10.74509
G1 X75.842 Y185.106 E10.77284
G1 X75.163 Y184.863 E10.79682
G1 X74.327 Y184.526 E10.8268
G1 X73.665 Y184.213 E10.85116
G1 X72.958 Y183.852 E10.87756
G1 X72.119 Y183.375 E10.90966
G1 X71.461 Y182.95 E10.93571
G1 X70.891 Y182.556 E10.95876
G1 X70.104 Y181.957 E10.99166
G1 X69.516 Y181.455 E11.01737
G1 X69.025 Y181.01 E11.03941
G1 X68.345 Y180.337 E11.07123
G1 X67.795 Y179.727 E11.09855
G1 X67.34 Y179.189 E11.12199
G1 X66.766 Y178.446 E11.15321
G1 X66.331 Y177.815 E11.1787
G1 X65.957 Y177.237 E11.2016
G1 X65.495 Y176.449 E11.23198
G1 X65.158 Y175.792 E11.25654
G1 X64.824 Y175.091 E11.28237
G1 X64.438 Y174.168 E11.31564
G1 X64.175 Y173.427 E11.3418
G1 X63.98 Y172.819 E11.36303
G1 X63.723 Y171.872 E11.39567
G1 X63.564 Y171.124 E11.4211
G1 X63.442 Y170.461 E11.44353
G1 X63.321 Y169.607 E11.47221
G1 X63.253 Y168.799 E11.49918
G1 X63.224 Y168.112 E11.52205
G1 X63.2 Y166.719 E11.56839
G1 X63.201 Y67.857 E14.85655
G1 X63.224 Y66.973 E14.88597
G1 X63.285 Y65.865 E14.92287
G1 X63.428 Y64.615 E14.96472
G1 X63.569 Y63.847 E14.99069
G1 X63.703 Y63.218 E15.01208
G1 X63.955 Y62.257 E15.04513
G1 X64.187 Y61.54 E15.07019
G1 X64.422 Y60.88 E15.09349
G1 X64.813 Y59.929 E15.12769
G1 X65.143 Y59.239 E15.15313
G1 X65.43 Y58.678 E15.17409
G1 X65.896 Y57.858 E15.20546
G1 X66.346 Y57.162 E15.23303
G1 X66.74 Y56.594 E15.25602
G1 X67.296 Y55.86 E15.28664
G0 F6000 X67.601 Y56.119
G1 F1200 X68.144 Y55.481 E15.31451
G1 X68.587 Y54.993 E15.33643
G1 X69.2 Y54.373 E15.36543
G1 X69.826 Y53.805 E15.39354
G1 X70.343 Y53.368 E15.41606
G1 X71.07 Y52.807 E15.4466
G1 X71.738 Y52.346 E15.4736
G1 X72.261 Y52.01 E15.49427
G1 X73.01 Y51.571 E15.52315
G1 X73.741 Y51.195 E15.55049
G1 X74.34 Y50.91 E15.57255
G1 X75.23 Y50.536 E15.60466
G1 X75.981 Y50.269 E15.63117
G1 X76.584 Y50.075 E15.65224
G1 X77.431 Y49.842 E15.68146
G1 X78.241 Y49.666 E15.70902
G1 X78.889 Y49.548 E15.73093
G1 X79.761 Y49.427 E15.76021
G1 X80.484 Y49.367 E15.78434
G1 X81.216 Y49.335 E15.80871
G1 X82.515 Y49.312 E15.85192
G1 X152.69 Y49.312 E18.18595
G1 X153.655 Y49.33 E18.21805
G1 X154.478 Y49.369 E18.24546
G1 X155.083 Y49.412 E18.26563
G1 X155.985 Y49.526 E18.29587
G1 X156.778 Y49.671 E18.32268
G1 X157.391 Y49.802 E18.34353
G1 X158.232 Y50.019 E18.37242
G1 X159.024 Y50.271 E18.40006
G1 X159.69 Y50.508 E18.42358
G1 X160.541 Y50.854 E18.45413
G1 X161.278 Y51.204 E18.48127
G1 X161.871 Y51.509 E18.50345
G1 X162.629 Y51.939 E18.53243
G1 X163.292 Y52.366 E18.55866
G1 X163.866 Y52.761 E18.58184
G1 X164.618 Y53.332 E18.61324
G1 X165.225 Y53.85 E18.63978
G1 X165.703 Y54.283 E18.66123
G1 X166.343 Y54.916 E18.69117
G1 X166.9 Y55.531 E18.71877
G1 X167.343 Y56.055 E18.74159
G1 X167.871 Y56.732 E18.77015
G1 X168.326 Y57.389 E18.79673
G1 X168.7 Y57.969 E18.81968
G1 X169.169 Y58.773 E18.85064
G1 X169.522 Y59.462 E18.87639
G1 X169.814 Y60.078 E18.89906
G1 X170.199 Y61.003 E18.93239
G1 X170.44 Y61.689 E18.95657
G1 X170.637 Y62.304 E18.97805
G1 X170.864 Y63.122 E19.00628
G1 X171.04 Y63.926 E19.03366
G1 X171.162 Y64.589 E19.05608
G1 X171.288 Y65.489 E19.08631
G1 X171.345 Y66.187 E19.1096
G1 X171.376 Y66.894 E19.13314
G1 X171.4 Y68.281 E19.17927
G1 X171.399 Y167.132 E22.46707
G1 X171.382 Y167.929 E22.49359
G1 X171.342 Y168.776 E22.52179
G1 X171.3 Y169.368 E22.54153
G1 X171.184 Y170.286 E22.5723
G1 X171.039 Y171.075 E22.59899
G1 X170.911 Y171.674 E22.61936
G1 X170.678 Y172.571 E22.65018
G1 X170.434 Y173.33 E22.6767
G1 X170.205 Y173.974 E22.69943
G1 X169.825 Y174.9 E22.73272
G1 X169.498 Y175.585 E22.75797
G1 X169.216 Y176.136 E22.77856
G1 X168.789 Y176.891 E22.80741
G1 X168.322 Y177.618 E22.83615
G1 X167.946 Y178.161 E22.85811
G1 X167.373 Y178.912 E22.88953
G1 X166.863 Y179.511 E22.9157
G1 X166.42 Y180 E22.93764
G1 X165.799 Y180.629 E22.96704
G1 X165.18 Y181.19 E22.99483
G1 X164.666 Y181.625 E23.01722
G1 X163.919 Y182.202 E23.04862
G1 X163.289 Y182.637 E23.07408
G1 X162.789 Y182.961 E23.0939
G1 X161.97 Y183.44 E23.12545
G1 X161.256 Y183.807 E23.15216
G1 X160.648 Y184.096 E23.17455
G1 X159.765 Y184.466 E23.20639
G1 X159.024 Y184.729 E23.23254
G1 X158.439 Y184.918 E23.25299
G1 X157.577 Y185.157 E23.28274
G1 X156.833 Y185.318 E23.30806
G1 X156.124 Y185.449 E23.33204
G1 X155.236 Y185.574 E23.36187
G1 X154.516 Y185.633 E23.38589
G1 X153.784 Y185.665 E23.41026
G1 X152.478 Y185.688 E23.45371
G1 X82.16 Y185.687 E25.79249
G1 X81.348 Y185.67 E25.81951
G1 X80.523 Y185.631 E25.84698
G1 X79.913 Y185.587 E25.86732
G1 X79.016 Y185.474 E25.89739
G1 X78.191 Y185.323 E25.92528
G1 X77.572 Y185.189 E25.94635
G1 X76.758 Y184.978 E25.97432
G1 X75.976 Y184.729 E26.00161
G1 X75.312 Y184.492 E26.02506
G1 X74.498 Y184.164 E26.05425
G1 X73.847 Y183.857 E26.07819
G1 X73.155 Y183.504 E26.10403
G1 X72.336 Y183.039 E26.13535
G1 X71.688 Y182.621 E26.161
G1 X71.133 Y182.238 E26.18343
G1 X70.364 Y181.653 E26.21557
G1 X69.784 Y181.158 E26.24093
G1 X69.306 Y180.726 E26.26236
G1 X68.642 Y180.069 E26.29342
G1 X68.1 Y179.469 E26.32032
G1 X67.656 Y178.944 E26.34319
G1 X67.095 Y178.219 E26.37368
G1 X66.667 Y177.598 E26.39876
G1 X66.302 Y177.034 E26.4211
G1 X65.851 Y176.266 E26.45073
G1 X65.519 Y175.62 E26.47488
G1 X65.193 Y174.936 E26.50009
G1 X64.815 Y174.034 E26.53261
G1 X64.556 Y173.304 E26.55838
G1 X64.366 Y172.714 E26.57899
G1 X64.114 Y171.789 E26.61088
G1 X63.957 Y171.052 E26.63594
G1 X63.838 Y170.405 E26.65782
G1 X63.72 Y169.573 E26.68577
G1 X63.653 Y168.782 E26.71218
G1 X63.624 Y168.105 E26.73471
G1 X63.6 Y166.719 E26.78082
G1 X63.601 Y67.867 E30.06865
G1 X63.623 Y66.995 E30.09766
G1 X63.682 Y65.91 E30.1338
G1 X63.821 Y64.687 E30.17474
G1 X63.96 Y63.93 E30.20034
G1 X64.09 Y63.319 E30.22112
G1 X64.336 Y62.38 E30.2534
G1 X64.564 Y61.674 E30.27808
G1 X64.792 Y61.032 E30.30074
G1 X65.174 Y60.101 E30.33421
G1 X65.499 Y59.421 E30.35928
G1 X65.778 Y58.875 E30.37967
G1 X66.232 Y58.075 E30.41026
G1 X66.675 Y57.39 E30.4374
G1 X67.059 Y56.835 E30.45984
G1 X67.601 Y56.119 E30.48971
G0 F6000 X67.92 Y56.36
G1 F1200 X68.44 Y55.75 E30.51637
G1 X68.872 Y55.274 E30.53775
G1 X69.469 Y54.669 E30.56602
G1 X70.085 Y54.11 E30.59369
G1 X70.588 Y53.684 E30.61561
G1 X71.297 Y53.136 E30.64541
G1 X71.955 Y52.682 E30.672
G1 X72.463 Y52.355 E30.6921
G1 X73.193 Y51.927 E30.72024
G1 X73.913 Y51.556 E30.74718
G1 X74.495 Y51.279 E30.76862
G1 X75.364 Y50.913 E30.79998
G1 X76.104 Y50.65 E30.8261
G1 X76.69 Y50.461 E30.84658
G1 X77.516 Y50.233 E30.87508
G1 X78.313 Y50.06 E30.90221
G1 X78.961 Y49.942 E30.92412
G1 X79.794 Y49.826 E30.95209
G1 X80.502 Y49.767 E30.97572
G1 X81.223 Y49.735 E30.99972
G1 X82.522 Y49.712 E31.04293
G1 X152.682 Y49.712 E33.37647
G1 X153.636 Y49.73 E33.4082
G1 X154.45 Y49.768 E33.4353
G1 X155.033 Y49.809 E33.45474
G1 X155.935 Y49.923 E33.48498
G1 X156.695 Y50.062 E33.51068
G1 X157.291 Y50.189 E33.53095
G1 X158.111 Y50.4 E33.55911
G1 X158.89 Y50.648 E33.5863
G1 X159.539 Y50.879 E33.60921
G1 X160.39 Y51.225 E33.63977
G1 X161.095 Y51.56 E33.66573
G1 X161.674 Y51.857 E33.68737
G1 X162.413 Y52.276 E33.71563
G1 X163.065 Y52.695 E33.7414
G1 X163.624 Y53.08 E33.76398
G1 X164.376 Y53.651 E33.79538
G1 X164.957 Y54.147 E33.82079
G1 X165.422 Y54.568 E33.84166
G1 X166.047 Y55.185 E33.87087
G1 X166.595 Y55.79 E33.89802
G1 X167.028 Y56.301 E33.92029
G1 X167.542 Y56.96 E33.94809
G1 X167.99 Y57.606 E33.97424
G1 X168.355 Y58.171 E33.99661
G1 X168.813 Y58.955 E34.02681
G1 X169.161 Y59.634 E34.05219
G1 X169.445 Y60.232 E34.0742
G1 X169.822 Y61.136 E34.10678
G1 X170.059 Y61.811 E34.13058
G1 X170.252 Y62.411 E34.15154
G1 X170.473 Y63.208 E34.17905
G1 X170.647 Y63.999 E34.20598
G1 X170.766 Y64.644 E34.2278
G1 X170.889 Y65.522 E34.25729
G1 X170.945 Y66.205 E34.28008
G1 X170.976 Y66.901 E34.30325
G1 X171 Y68.281 E34.34916
G1 X170.999 Y167.123 E37.63666
G1 X170.982 Y167.91 E37.66284
G1 X170.943 Y168.748 E37.69074
G1 X170.903 Y169.318 E37.70975
G1 X170.787 Y170.236 E37.74052
G1 X170.648 Y170.992 E37.76609
G1 X170.524 Y171.574 E37.78588
G1 X170.297 Y172.449 E37.81594
G1 X170.057 Y173.196 E37.84204
G1 X169.835 Y173.822 E37.86413
G1 X169.464 Y174.728 E37.89669
G1 X169.142 Y175.403 E37.92157
G1 X168.868 Y175.939 E37.94159
G1 X168.441 Y176.694 E37.97044
G1 X167.993 Y177.39 E37.99797
G1 X167.617 Y177.933 E38.01994
G1 X167.069 Y178.653 E38.05003
G1 X166.567 Y179.242 E38.07577
G1 X166.135 Y179.719 E38.09718
G1 X165.53 Y180.333 E38.12585
G1 X164.921 Y180.885 E38.15318
G1 X164.421 Y181.309 E38.17499
G1 X163.692 Y181.873 E38.20564
G1 X163.071 Y182.301 E38.23073
G1 X162.571 Y182.625 E38.25055
G1 X161.787 Y183.084 E38.28076
G1 X161.084 Y183.446 E38.30706
G1 X160.493 Y183.727 E38.32883
G1 X159.61 Y184.097 E38.36067
G1 X158.901 Y184.348 E38.38569
G1 X158.316 Y184.537 E38.40613
G1 X157.492 Y184.766 E38.43458
G1 X156.76 Y184.925 E38.45949
G1 X156.068 Y185.053 E38.4829
G1 X155.203 Y185.175 E38.51195
G1 X154.498 Y185.233 E38.53548
G1 X153.777 Y185.265 E38.55949
G1 X152.478 Y185.288 E38.6027
G1 X82.168 Y185.287 E40.94122
G1 X81.367 Y185.27 E40.96786
G1 X80.551 Y185.232 E40.99503
G1 X79.963 Y185.19 E41.01464
G1 X79.066 Y185.077 E41.04471
G1 X78.275 Y184.932 E41.07146
G1 X77.672 Y184.802 E41.09197
G1 X76.879 Y184.597 E41.11922
G1 X76.11 Y184.352 E41.14606
G1 X75.461 Y184.121 E41.16897
G1 X74.669 Y183.802 E41.19737
G1 X74.018 Y183.495 E41.22131
G1 X73.352 Y183.156 E41.24617
G1 X72.553 Y182.703 E41.27672
G1 X71.915 Y182.292 E41.30196
G1 X71.375 Y181.92 E41.32377
G1 X70.624 Y181.349 E41.35515
G1 X70.052 Y180.861 E41.38015
G1 X69.587 Y180.441 E41.40099
G1 X68.939 Y179.801 E41.43129
G1 X68.405 Y179.21 E41.45778
G1 X67.972 Y178.699 E41.48006
G1 X67.424 Y177.992 E41.50981
G1 X67.003 Y177.381 E41.53449
G1 X66.647 Y176.831 E41.55628
G1 X66.207 Y176.083 E41.58514
G1 X65.88 Y175.448 E41.6089
G1 X65.562 Y174.781 E41.63347
G1 X65.184 Y173.879 E41.666
G1 X64.937 Y173.181 E41.69063
G1 X64.752 Y172.609 E41.71062
G1 X64.505 Y171.705 E41.74179
G1 X64.35 Y170.98 E41.76645
G1 X64.234 Y170.349 E41.78779
G1 X64.119 Y169.539 E41.815
G1 X64.053 Y168.765 E41.84084
G1 X64.024 Y168.098 E41.86304
G1 X64 Y166.719 E41.90892
G1 X64.001 Y67.877 E45.19641
G1 X64.022 Y67.016 E45.22506
G1 X64.079 Y65.955 E45.2604
G1 X64.214 Y64.759 E45.30043
G1 X64.351 Y64.013 E45.32566
G1 X64.477 Y63.42 E45.34582
G1 X64.717 Y62.503 E45.37735
G1 X64.941 Y61.808 E45.40164
G1 X65.162 Y61.184 E45.42365
G1 X65.535 Y60.273 E45.45639
G1 X65.855 Y59.603 E45.48109
G1 X66.126 Y59.072 E45.50092
G1 X66.568 Y58.292 E45.53074
G1 X67.004 Y57.617 E45.55746
G1 X67.378 Y57.076 E45.57934
G1 X67.92 Y56.36 E45.60921
G1 F2700 E40.60921
;MESH:Case Bottom.stl
G0 F6000 X73.538 Y67.264
G0 X81.642 Y174.488
;TYPE:WALL-INNER
G1 F2700 E45.60921
G1 F1200 X153.358 Y174.487 E47.99449
G1 X154.134 Y174.437 E48.02035
G1 X155.033 Y174.258 E48.05084
G1 X155.89 Y173.966 E48.08095
G1 X156.713 Y173.56 E48.11148
G1 X157.474 Y173.052 E48.14191
G1 X158.161 Y172.449 E48.17231
G1 X158.764 Y171.761 E48.20274
G1 X159.273 Y171 E48.23319
G1 X159.679 Y170.178 E48.26368
G1 X159.97 Y169.321 E48.29379
G1 X160.149 Y168.421 E48.32431
G1 X160.199 Y167.646 E48.35014
G1 X160.2 Y67.354 E51.68586
G1 X160.149 Y66.579 E51.71169
G1 X159.97 Y65.679 E51.74222
G1 X159.679 Y64.822 E51.77232
G1 X159.273 Y64 E51.80281
G1 X158.764 Y63.239 E51.83326
G1 X158.161 Y62.551 E51.86369
G1 X157.474 Y61.948 E51.89409
G1 X156.713 Y61.44 E51.92452
G1 X155.89 Y61.034 E51.95505
G1 X155.033 Y60.742 E51.98516
G1 X154.134 Y60.563 E52.01565
G1 X153.358 Y60.512 E52.04151
G1 X81.642 Y60.512 E54.4268
G1 X80.866 Y60.563 E54.45266
G1 X79.967 Y60.742 E54.48315
G1 X79.11 Y61.034 E54.51326
G1 X78.287 Y61.44 E54.54379
G1 X77.526 Y61.948 E54.57422
G1 X76.839 Y62.551 E54.60462
G1 X76.236 Y63.239 E54.63505
G1 X75.727 Y64 E54.6655
G1 X75.321 Y64.822 E54.69599
G1 X75.03 Y65.679 E54.7261
G1 X74.851 Y66.579 E54.75662
G1 X74.8 Y67.354 E54.78245
G1 X74.8 Y167.646 E58.11817
G1 X74.851 Y168.421 E58.14401
G1 X75.03 Y169.322 E58.17456
G1 X75.321 Y170.178 E58.20463
G1 X75.727 Y171 E58.23512
G1 X76.236 Y171.761 E58.26557
G1 X76.839 Y172.449 E58.296
G1 X77.526 Y173.052 E58.32641
G1 X78.287 Y173.56 E58.35684
G1 X79.11 Y173.966 E58.38736
G1 X79.967 Y174.258 E58.41747
G1 X80.866 Y174.437 E58.44796
G1 X81.642 Y174.488 E58.47383
G0 F6000 X81.629 Y174.888
;TYPE:WALL-OUTER
G1 F1200 X153.371 Y174.887 E60.85998
